X:1
T: Kitty Dog
L:1/8
M: 4/4
C: David Kimdon
K:D
|: "Em" B,E FG- GF EB,| E2 F2 G2 E2|"G"DG AB- BA GD|G B2 A-A2 d2|
"Bm" dc BF -Fd cB |"A" cB AE -Ec BA |"G" B3 G-G2 B2 | "D" A8 :| 
|: z F GA Bc de |  fd AF DF Af|"Em"ge BG EG Bg|"D" fd AF DF Af-|
"Bm" f3 d- dB cB|"G"c2 dB -BB cB|d3B- BG AG|"D"A2 BF-F4:|

